content/blogs/regnskap/hva-er-regnskap/accounting-cycle.svg

<svg xmlns="http://www.w3.org/2000/svg" width="800" height="400" font-family="Arial, sans-serif"><defs><marker id="a" markerHeight="6" markerWidth="6" orient="auto" refX="8" refY="5" viewBox="0 0 10 10"><path fill="#555" d="m0 0 10 5-10 5z"/></marker></defs><path fill="none" stroke="#ccc" stroke-dasharray="10,5" stroke-width="2" d="M400 50a150 150 0 1 1-.1 0"/><g transform="translate(400 200)"><circle cy="-150" r="40" fill="#fff3e0" stroke="#ffcc80"/><text y="-150" dominant-baseline="middle" font-size="12" text-anchor="middle">1. Transaksjoner</text></g><g transform="translate(400 200)"><circle cx="106" cy="-106" r="40" fill="#e3f2fd" stroke="#90caf9"/><text x="106" y="-106" dominant-baseline="middle" font-size="12" text-anchor="middle">2. Journalføring</text></g><g transform="translate(400 200)"><circle cx="150" r="40" fill="#e8f5e9" stroke="#a5d6a7"/><text x="150" dominant-baseline="middle" font-size="12" text-anchor="middle">3. Hovedbok</text></g><g transform="translate(400 200)"><circle cx="106" cy="106" r="40" fill="#fce4ec" stroke="#f06292"/><text x="106" y="106" dominant-baseline="middle" font-size="12" text-anchor="middle">4. Råbalanse</text></g><g transform="translate(400 200)"><circle cy="150" r="40" fill="#f1f8e9" stroke="#c5e1a5"/><text y="150" dominant-baseline="middle" font-size="11" text-anchor="middle">5. Justeringer</text></g><g transform="translate(400 200)"><circle cx="-106" cy="106" r="40" fill="#ede7f6" stroke="#b39ddb"/><text x="-106" y="106" dominant-baseline="middle" font-size="11" text-anchor="middle">6. Justert Balanse</text></g><g transform="translate(400 200)"><circle cx="-150" r="40" fill="#e0f7fa" stroke="#80deea"/><text x="-150" dominant-baseline="middle" font-size="11" text-anchor="middle">7. Regnskap</text></g><g transform="translate(400 200)"><circle cx="-106" cy="-106" r="40" fill="#fffde7" stroke="#fff59d"/><text x="-106" y="-106" dominant-baseline="middle" font-size="12" text-anchor="middle">8. Avslutning</text></g><path fill="none" stroke="#555" stroke-width="1.5" marker-end="url(#a)" d="M53-139a150 150 0 0 1 39 17" transform="translate(400 200)"/><path fill="none" stroke="#555" stroke-width="1.5" marker-end="url(#a)" d="M122-92a150 150 0 0 1 17 39" transform="translate(400 200)"/><path fill="none" stroke="#555" stroke-width="1.5" marker-end="url(#a)" d="M149 25a150 150 0 0 1 0 50" transform="translate(400 200)"/><path fill="none" stroke="#555" stroke-width="1.5" marker-end="url(#a)" d="M122 92a150 150 0 0 1-30 30" transform="translate(400 200)"/><path fill="none" stroke="#555" stroke-width="1.5" marker-end="url(#a)" d="M53 139a150 150 0 0 1-28 10" transform="translate(400 200)"/><path fill="none" stroke="#555" stroke-width="1.5" marker-end="url(#a)" d="M-25 149a150 150 0 0 1-50 0" transform="translate(400 200)"/><path fill="none" stroke="#555" stroke-width="1.5" marker-end="url(#a)" d="M-92 122a150 150 0 0 1-30-30" transform="translate(400 200)"/><path fill="none" stroke="#555" stroke-width="1.5" marker-end="url(#a)" d="M-139 53a150 150 0 0 1 0-28" transform="translate(400 200)"/><path fill="none" stroke="#555" stroke-width="1.5" marker-end="url(#a)" d="M-149-25a150 150 0 0 1 0-50" transform="translate(400 200)"/><path fill="none" stroke="#555" stroke-width="1.5" marker-end="url(#a)" d="M-122-92a150 150 0 0 1 30-30" transform="translate(400 200)"/><path fill="none" stroke="#555" stroke-width="1.5" marker-end="url(#a)" d="M-53-139a150 150 0 0 1 28-10" transform="translate(400 200)"/></svg>

<svg width="800" height="400" xmlns="http://www.w3.org/2000/svg" font-family="Arial, sans-serif">
    <defs>
        <marker id="cycle-arrow" viewBox="0 0 10 10" refX="8" refY="5" markerWidth="6" markerHeight="6" orient="auto">
            <path d="M 0 0 L 10 5 L 0 10 z" fill="#555" />
        </marker>
    </defs>
    <g transform="translate(400, 200)">
        <path id="circle-path" d="M 0 -150 A 150 150 0 1 1 -0.1 -150" fill="none" stroke="#ccc" stroke-width="2" stroke-dasharray="10,5"/>
        <g>
            <circle cx="0" cy="-150" r="40" fill="#fff3e0" stroke="#ffcc80"/>
            <text x="0" y="-150" text-anchor="middle" dominant-baseline="middle" font-size="12">1. Transaksjoner</text>
        </g>
        <g>
            <circle cx="106" cy="-106" r="40" fill="#e3f2fd" stroke="#90caf9"/>
            <text x="106" y="-106" text-anchor="middle" dominant-baseline="middle" font-size="12">2. Journalføring</text>
        </g>
        <g>
            <circle cx="150" cy="0" r="40" fill="#e8f5e9" stroke="#a5d6a7"/>
            <text x="150" y="0" text-anchor="middle" dominant-baseline="middle" font-size="12">3. Hovedbok</text>
        </g>
        <g>
            <circle cx="106" cy="106" r="40" fill="#fce4ec" stroke="#f06292"/>
            <text x="106" y="106" text-anchor="middle" dominant-baseline="middle" font-size="12">4. Råbalanse</text>
        </g>
        <g>
            <circle cx="0" cy="150" r="40" fill="#f1f8e9" stroke="#c5e1a5"/>
            <text x="0" y="150" text-anchor="middle" dominant-baseline="middle" font-size="11">5. Justeringer</text>
        </g>
        <g>
            <circle cx="-106" cy="106" r="40" fill="#ede7f6" stroke="#b39ddb"/>
            <text x="-106" y="106" text-anchor="middle" dominant-baseline="middle" font-size="11">6. Justert Balanse</text>
        </g>
        <g>
            <circle cx="-150" cy="0" r="40" fill="#e0f7fa" stroke="#80deea"/>
            <text x="-150" y="0" text-anchor="middle" dominant-baseline="middle" font-size="11">7. Regnskap</text>
        </g>
        <g>
            <circle cx="-106" cy="-106" r="40" fill="#fffde7" stroke="#fff59d"/>
            <text x="-106" y="-106" text-anchor="middle" dominant-baseline="middle" font-size="12">8. Avslutning</text>
        </g>
        <path d="M 53 -139 A 150 150 0 0 1 92 -122" fill="none" stroke="#555" stroke-width="1.5" marker-end="url(#cycle-arrow)"/>
        <path d="M 122 -92 A 150 150 0 0 1 139 -53" fill="none" stroke="#555" stroke-width="1.5" marker-end="url(#cycle-arrow)"/>
        <path d="M 149 25 A 150 150 0 0 1 149 75" fill="none" stroke="#555" stroke-width="1.5" marker-end="url(#cycle-arrow)"/>
        <path d="M 122 92 A 150 150 0 0 1 92 122" fill="none" stroke="#555" stroke-width="1.5" marker-end="url(#cycle-arrow)"/>
        <path d="M 53 139 A 150 150 0 0 1 25 149" fill="none" stroke="#555" stroke-width="1.5" marker-end="url(#cycle-arrow)"/>
        <path d="M -25 149 A 150 150 0 0 1 -75 149" fill="none" stroke="#555" stroke-width="1.5" marker-end="url(#cycle-arrow)"/>
        <path d="M -92 122 A 150 150 0 0 1 -122 92" fill="none" stroke="#555" stroke-width="1.5" marker-end="url(#cycle-arrow)"/>
        <path d="M -139 53 A 150 150 0 0 1 -139 25" fill="none" stroke="#555" stroke-width="1.5" marker-end="url(#cycle-arrow)"/>
        <path d="M -149 -25 A 150 150 0 0 1 -149 -75" fill="none" stroke="#555" stroke-width="1.5" marker-end="url(#cycle-arrow)"/>
        <path d="M -122 -92 A 150 150 0 0 1 -92 -122" fill="none" stroke="#555" stroke-width="1.5" marker-end="url(#cycle-arrow)"/>
        <path d="M -53 -139 A 150 150 0 0 1 -25 -149" fill="none" stroke="#555" stroke-width="1.5" marker-end="url(#cycle-arrow)"/>
    </g>
</svg>
